svgs/solid/helmet-battle.svg

<svg xmlns="http://www.w3.org/2000/svg" viewBox="0 0 576 512"><!-- Font Awesome Pro 6.0.0-alpha2 by @fontawesome - https://fontawesome.com License - https://fontawesome.com/license (Commercial License) --><path d="M31.994 256C49.619 256 63.994 243.5 63.994 228V0L0.993 221.125C-4.132 238.875 11.243 256 31.994 256ZM575.007 221.125L512.006 0V228C512.006 243.5 526.381 256 544.006 256C564.757 256 580.132 238.875 575.007 221.125ZM480.005 210.875C480.005 90.375 288 0 288 0S95.995 90.375 95.995 210.875C95.995 293.625 73.12 356.75 64.869 391.5C61.494 406 68.494 420.875 81.245 426.75L255.999 512V256L159.997 224V192H416.003V224L320.001 256V512L494.88 426.75C507.506 420.875 514.631 406 511.131 391.5C502.88 356.75 480.005 293.625 480.005 210.875Z"/></svg>

<svg xmlns="http://www.w3.org/2000/svg" viewBox="0 0 576 512"><!-- Font Awesome Pro 5.15.1 by @fontawesome - https://fontawesome.com License - https://fontawesome.com/license (Commercial License) --><path d="M32.01 256C49.68 256 64 243.44 64 227.94V0L.97 221.13C-4.08 238.84 11.2 256 32.01 256zm543.02-34.87L512 0v227.94c0 15.5 14.32 28.06 31.99 28.06 20.81 0 36.09-17.16 31.04-34.87zM480 210.82C480 90.35 288 0 288 0S96 90.35 96 210.82c0 82.76-22.86 145.9-31.13 180.71-3.43 14.43 3.59 29.37 16.32 35.24L256 512V256l-96-32v-32h256v32l-96 32v256l174.82-85.23c12.73-5.87 19.75-20.81 16.32-35.24-8.28-34.81-31.14-97.95-31.14-180.71z"/></svg>
